X: 699
T: Redhaired Boy, The
B: jims roots
M:4/4
L:1/8
R: reel
Q: 1/4=100
K:Amix
V:1 
AG  |  "A"E2A2 ABcd  |  efec "D"d2cd  |  "A"e2A2 ABcA  |  "G"BAEF G2 GF  |
"A"E2A2 ABcd  |  efec "D"d2cd  |  "A"ea2b afed  |  "E"cABc "A"A2:|
|: ef  |  "G"g2ef g2ef  |  gfec "D"d2cd  |  "A"e2A2 ABcA  |  "G"BAEF G3F  |
"A"E2A2 ABcd  |  efec "D"d2cd  |  "A"e a2 b aged  |  cA"E"BG "A"A4 :|
% abcbook-tune_id 6298c25d6dc4407f2ad83f17


% abcbook-boost 0
% abcbook-tablature 
% abcbook-transpose 
% abcbook-lastupdated 1654178399311
% abcbook-soundfonts 
% abcbook-repeats 1
% fidicen

